app/dist/common/images/costar-group.svg

<svg height="18" width="18" xmlns="http://www.w3.org/2000/svg" xmlns:xlink="http://www.w3.org/1999/xlink"><linearGradient id="a" gradientUnits="userSpaceOnUse" x1="3.349" x2="21.904" y1="3.122" y2="24.434"><stop offset="0" stop-color="#1a1e21"/><stop offset="1" stop-color="#06060a"/></linearGradient><path d="m0 0h18v18h-18z" fill="url(#a)"/><path d="m8.275 4-3.025 2.5 3.595.625 1.405-1.875zm-4.275 4.52 1.134 3.538 2.019-3.09-1.34-1.868zm6.515 5.48h-3.703l-.73-2.2 2.17-.709 2.262 2.909zm2.235-1 1.25-3.688-3.439 1.563.001 2.125zm-1.875-8.375 2.812 2.188-.625 2.187-2.187-.625z" fill="#fff"/></svg>

<!-- by TradingView --><svg width="18" height="18" xmlns="http://www.w3.org/2000/svg"><path fill="url(#paint0_linear)" d="M0 0h18v18H0z"/><path d="M8.275 4L5.25 6.5l3.595.625L10.25 5.25 8.275 4zM4 8.52l1.134 3.538 2.019-3.09L5.813 7.1 4 8.52zM10.515 14H6.812l-.73-2.2 2.17-.709L10.514 14zm2.235-1L14 9.312l-3.439 1.563.001 2.125h2.188zm-1.875-8.375l2.812 2.188L13.062 9l-2.187-.625v-3.75z" fill="#fff"/><defs><linearGradient id="paint0_linear" x1="3.349" y1="3.122" x2="21.904" y2="24.434" gradientUnits="userSpaceOnUse"><stop stop-color="#1A1E21"/><stop offset="1" stop-color="#06060A"/></linearGradient></defs></svg>
